X:1
T:The Erie Canal
B:Singing Together, Summer 1978, BBC Publications
F:http://www.folkinfo.org/songs
M:4/4
K:F
F2|D D3 A2 A2|G  G3 A4|A A3 A2 DE|FDED-D2  A3/A/|
w:I've got a mule her name is Sal, Fif-teen miles on the Er-ie Ca-nal._ She's a
D D3 FFFF|G G2 A4|A A3 A2 DE|FDED-D2 A2|
w:good old wor-ker and a good old pal, Fif-teen miles on the Er-ie Ca-nal_ We've
c2 Ac-c2 A2|c A3 G4|A2 FA-A2 F2|A2 F2 G2 A2|
w:haul'd some barg -es in our day. Fill'd with lum -ber, coal and hay, And
D D3 F2 F2|G2 FG A2 A2|A2 GA-A2 (DG)|(FD)E(D-D2 C2)
w:we know ev-'ry inch of the way From Al-ban-y_ to_ Buf -fa-lo_
A4 A4|A3/G/ A3/F/ G4|A4 A2 F3/G/|A3/F/ G3/E/ F2 A3/B/|
w:Low bridge, ev-'ry-bo-dy down, Low bridge for we're go-ing through a town, And you
c3/=B/ c3/A/ _B B2 G|c3/=B/ c3/A/ _B2 B3/B/|A3/G/ A3/F/ B3/A/ B3/G/|AF GF-F2|]
w:al-ways know your neigh-bour, You'll al-ways know your pal, If you ev-er nav-i-gat-ed on the Er-ie Can-al.